!!!!SEGMENT: pl-kk--kk-i-6--036-002_anonim--missa-in-defectu-et-in-terra.krn
!!!id: 16xx:1012
!!!COM: Anonim
!!!COM-rism: pe30004985
!!!CDT:
!!!CNT:
!!!OTL: Missa in defectu – Et in terra
!!!PDT:
!!!SMS-siglum: PL-Kk
!!!SMS-shelfmark: Kk.I.6
!!!NIFC-rismID: 1001136224
!!!URL-scan: http://repozytorium.nifc.pl/skany/pl-kk-nut--i-6
!!!ONB-nifc: UWAGA: C (brak), T (skan 0154-0155, s. 103-105), B (skan 0264-0265, s. 111-113) Części Mszy; 1. Kyrie, 2. Et in terra, 3. Patrem, 4. Sanctus, 5. Agnus Dei
!!!SMS-variant:
!!!SMS-altvar:
**kern	**text	**kern	**text	**kern
*part3	*part3	*part2	*part2	*part1
*staff3	*staff3	*staff2	*staff2	*staff1
*I"Baſsus.	*	*I"Tenor.	*	*I"Cantus.
*I'B	*	*I'T	*	*I'S
*clefF4	*	*clefC4	*	*clefC4
*k[]	*	*k[]	*	*k[]
*M2/1	*	*M2/1	*	*M2/1
*met(C|)	*	*met(C|)	*	*met(C|)
=1-	=1-	=1-	=1-	=1-
*all\right	*	*all\right	*	*
!LO:TX:t=P:problem:inicjał E	!	!LO:TX:t=P:problem:inicjał E	!	!LO:TX:t=P:problem:brak partii
00r	.	1r	.	0ryy
.	.	1A	ET	.
=2-	=2-	=2-	=2-	=2-
.	.	2E/	in	0ryy
.	.	2.G/	ter-	.
!	!	!LO:TX:t=P:problem:♯above & below	!	!
.	.	8F#X/L	.	.
.	.	8E/J	.	.
!	!	!LO:TX:b:t=P:problem:♯below	!	!
.	.	4F#X/	.	.
!	!	!LO:TX:b:t=P:problem:♯below	!	!
.	.	4G#X/	.	.
=3-	=3-	=3-	=3-	=3-
1A	ET	4A/	.	0ryy
.	.	4G#/	.	.
.	.	4A/	.	.
.	.	4B/	.	.
*	*	*2\right	*	*
2AA/	in	2.c\	.	.
2.C/	ter-	.	.	.
.	.	4d\	.	.
=4-	=4-	=4-	=4-	=4-
.	.	2e\	.	0ryy
8BB/L	.	.	.	.
8AA/J	.	.	.	.
4BB/	.	2d\	-ra	.
4C/	.	.	.	.
1D	.	2d\	pax	.
.	.	(4A/	.	.
.	.	4B\)	.	.
=5-	=5-	=5-	=5-	=5-
1AA	-ra	2.c\	ho-	0ryy
.	.	8B\L	-mi-	.
.	.	8A\J	.	.
*2\right	*	*	*	*
2E\	pax	1.B	.	.
2D/	ho-	.	.	.
=6-	=6-	=6-	=6-	=6-
*lig	*	*	*	*
1C	-mi-	.	.	0ryy
.	.	2A/	.	.
*col	*	*	*	*
2.BB/	.	2Gny/	.	.
!	!	!LO:TX:b:t=P:problem:♯below	!	!
!	!	!LO:SIC:v:t=custos E	!	!
.	.	2F#X/	-ni-	.
*Xlig	*	*	*	*
4BB/	-ni-	.	.	.
*Xcol	*	*	*	*
!	!	!LO:LB:g=original	!	!
=7-	=7-	=7-	=7-	=7-
1E	-b(us)	2E/	-b(us)	0ryy
.	.	1E	Bo-	.
0r	.	.	.	.
!	!	!LO:TX:t=P:problem:♯above	!	!
.	.	2F#X/	-nae	.
=8-	=8-	=8-	=8-	=8-
.	.	2G/	Vo-	0ryy
.	.	2E/	-lun-	.
!	!	!LO:TX:b:t=P:problem:♯below	!	!
1r	.	4F#X/	-ta-	.
.	.	4G/	.	.
.	.	1A/	.	.
=9-	=9-	=9-	=9-	=9-
1E	Lau-	.	.	0ryy
!	!	!LO:TX:b:t=P:problem:♯below	!	!
.	.	2G#X/	.	.
2.F\	-da-	2A/	-tis	.
.	.	2A/	Lau-	.
4F\	-m(us)	.	.	.
=10-	=10-	=10-	=10-	=10-
2E\	te	2.c\	-da-	0ryy
2C/	Be-	.	.	.
.	.	4c\	-m(us)	.
2E\	-ne-	2B\	te	.
1G\	-di-	2Gny/	Be-	.
=11-	=11-	=11-	=11-	=11-
.	.	2B\	-ne-	0ryy
!LO:SIC:v:t=custos E	!	!	!	!
2F#X\	-ci-	1d	-di-	.
!LO:LB:g=original	!	!	!	!
1E	-m(us)	.	.	.
.	.	2c\	-ci-	.
=12-	=12-	=12-	=12-	=12-
2D/	te	2B\	-m(us)-	0ryy
1D	A-	4A/	.	.
.	.	4G/	.	.
.	.	2F#X/	-te	.
2C/	-do-	1A/	A-	.
=13-	=13-	=13-	=13-	=13-
2.BB/	-ra-	.	.	0ryy
!	!	!LO:TX:b:t=P:problem:♯below	!	!
.	.	2G#X/	-do-	.
4BB/	-m(us)	.	.	.
2AA/	te	2.c\	-ra-	.
2A\	glo-	.	.	.
.	.	4c\	-m(us)	.
=14-	=14-	=14-	=14-	=14-
2A\	-ri-	2c\	te	0ryy
!LO:TX:t=P:problem:♯above	!	!LO:SIC:v:t=custos c	!	!
2G#X\	-fi-	2B\	glo-	.
!	!	!LO:LB:g=original	!	!
2A\	-ca-	2c\	-ri-	.
2Fny\	.	2A/	-fi-	.
=15-	=15-	=15-	=15-	=15-
1E	.	2G#X/	-ca-	0ryy
.	.	1A	.	.
1E	-mus	.	.	.
.	.	2G#/	-m(us)	.
=16-	=16-	=16-	=16-	=16-
1AA	te	1A	te	0ryy
2.A\	Gra-	2.c\	Gra-	.
4A\	-ti-	4c\	-ti-	.
=17-	=17-	=17-	=17-	=17-
1F	-as	1A	-as	0ryy
2.B-X\	a-	2.d\	a-	.
4A\	-gi-	4c\	-gi-	.
=18-	=18-	=18-	=18-	=18-
2Gny\	-m(us)	2B-X\	-m(us)	0ryy
4G\	Ti-	4B-\	ti-	.
4F\	.	4A/	.	.
4E\	.	4Gny/	.	.
4D\	.	4Fny/	.	.
2E\	.	2G/	.	.
=19-	=19-	=19-	=19-	=19-
!LO:SIC:v:t=custos D	!	!	!	!
1D	-bi	2F#X/	-bi	0ryy
.	.	2.A/	pro-	.
!LO:PB:g=original	!	!	!	!
2.D/	pro-	.	.	.
.	.	4A/	-pter	.
!	!	!LO:N:acc=#	!	!
.	.	2Bn\	ma-	.
4D/	-pter	.	.	.
=20-	=20-	=20-	=20-	=20-
2E\	ma-	2G/	-gn(am)	0ryy
2C/	-gn(am)	2.c\	gl(o-	.
4E\	glo-	.	.	.
4F\	.	4c\	-ri)-	.
2.G\	.	2B\	-am	.
=21-	=21-	=21-	=21-	=21-
.	.	1A	tu-	0ryy
4G\	-ri-	.	.	.
!LO:TX:t=P:problem:♯above	!	!	!	!
2F#X\	-am	.	.	.
!	!	!LO:SIC:v:t=custos G	!	!
1G	tu-	2G/	-am	.
!	!	!LO:LB:g=original	!	!
.	.	2.G/	D(o-	.
=22-	=22-	=22-	=22-	=22-
1D	-am	.	.	0ryy
.	.	4G/	-mi)-	.
.	.	2F#X/	-ne	.
2r	.	4G/	DE-	.
.	.	4A/	.	.
2.G\	Do-	4B\	.	.
.	.	4c,\	.	.
=23-	=23-	=23-	=23-	=23-
.	.	4d\	-us	0ryy
4G\	-mi-	4B\	.	.
2E\	-ne	2.e\	Rex	.
2.A\	DE-	.	.	.
.	.	4d\	cae-	.
.	.	2.c\	-le-	.
4G\	.	.	.	.
=24-	=24-	=24-	=24-	=24-
4Fny\	-VS	.	.	0ryy
4E\	.	8d\L	.	.
.	.	8e\J	.	.
4D/	Rex	1f	.	.
4C/	.	.	.	.
2BB/	.	.	.	.
2C/	Cae-	2e\	.	.
=25-	=25-	=25-	=25-	=25-
2F\	-le-	1d	.	0ryy
2G\	.	.	.	.
2C/	-ſtis	2e\	-ſtis	.
1C/	DE-	1c\	DE-	.
=26-	=26-	=26-	=26-	=26-
.	.	.	.	0ryy
!LO:SIC:v:t=custos AA	!	!	!	!
2GG/	-(us)	2B\	-(us)	.
!LO:LB:g=original	!	!	!	!
1AA	Pa-	1A	Pa-	.
=27-	=27-	=27-	=27-	=27-
2AA/	-ter	2A/	-ter	0ryy
2C/	o-	2G/	.	.
1.BB	-mni-	2G/	O-	.
!	!	!LO:TX:b:t=P:problem:♯below	!	!
.	.	4F#X/	.	.
.	.	4E/	.	.
=28-	=28-	=28-	=28-	=28-
.	.	2.F#X/	-mni-	0ryy
2BB/	-po-	.	.	.
!	!	!LO:SIC:v:t=custos G	!	!
.	.	4F#/	-po-	.
!	!	!LO:PB:g=original	!	!
2E\	-tens	2G/	-tens	.
2.E\	Do-	2.G/	D(o-	.
=29-	=29-	=29-	=29-	=29-
.	.	.	.	0ryy
4E\	-mi-	4G/	-mi)-	.
2F#X\	-ne	2A/	-ne	.
1G	Fi-	4B/	Fi-	.
.	.	4A/	.	.
.	.	4B/	.	.
.	.	4c/	.	.
=30-	=30-	=30-	=30-	=30-
2D/	-li	2d\	.	0ryy
1D	V-	2A/	-li	.
.	.	2.A/	v-	.
2C/	-ni-	.	.	.
.	.	4A/	-ni-	.
=31-	=31-	=31-	=31-	=31-
2.BB/	-ge-	2.A/	-ge-	0ryy
!	!	!LO:TX:b:t=P:problem:♯below	!	!
4BB/	-ni-	4G#X/	-ni-	.
2AA/	-te	2A/	-te	.
2.AA/	JE-	2.A/	JE-	.
=32-	=32-	=32-	=32-	=32-
.	.	.	.	0ryy
4BB/	.	8Gny/L	.	.
!	!	!LO:TX:b:t=P:problem:♯below	!	!
.	.	8F#X/J	.	.
4C/	.	4E/	.	.
!	!	!LO:TX:b:t=P:problem:♯below	!	!
4D/	.	4F#/	.	.
2E\	.	2G/	.	.
2C/	-SV	2E/	-SV	.
=33-	=33-	=33-	=33-	=33-
1Fny	CHri-	1.A	CHri-	0ryy
!LO:SIC:v:t=custos F	!	!	!	!
1E	-ſte	.	.	.
!	!	!LO:TX:b:t=P:problem:♯below	!	!
.	.	2G#X/	.	.
!LO:LB:g=original	!	!	!	!
=34-	=34-	=34-	=34-	=34-
2.F\	Do-	1A	-ſte	0ryy
4F\	-mi-	.	.	.
2E\	-ne	2.c\	D(o-	.
1F\	DE-	.	.	.
.	.	4c\	-mi)-	.
=35-	=35-	=35-	=35-	=35-
.	.	2A\	-ne	0ryy
2E\	-(us)	1c	DE-	.
1D	A-	.	.	.
!	!	!LO:SIC:v:t=custos c	!	!
.	.	2B\	.	.
!	!	!LO:LB:g=original	!	!
=36-	=36-	=36-	=36-	=36-
2C/	-gnus	1c	-(us)	0ryy
2AA/	.	.	.	.
2BB/	DE-	2d\	A-	.
1C/	.	2c\	-gnus	.
=37-	=37-	=37-	=37-	=37-
.	.	1f	DE-	0ryy
2BB/	.	.	.	.
2C/	-I	2e\	-i	.
2.C/	Fi-	2.c\	Fi-	.
=38-	=38-	=38-	=38-	=38-
.	.	.	.	0ryy
4C/	-li-	4c\	-li-	.
2GG/	-us	2B\	-us	.
0AA	Pa-	2.A\	Pa-	.
.	.	4B\	.	.
=39-	=39-	=39-	=39-	=39-
.	.	4c\	.	0ryy
.	.	4B\	.	.
.	.	2A/	.	.
!LO:TX:a:t=P:problem:pojedyncza kreska taktowa	!	!	!	!
!LO:N:vis=0	!	!LO:TX:b:t=P:problem:♯below	!	!
1El;<	-tris	1G#X;	tris	.
=40||	=40||	=40||	=40||	=40||
*M2/1	*	*M2/1	*	*
*met(C|)	*	*met(C|)	*	*
!LO:TX:t=P:problem:inicjał Q	!	!LO:TX:t=P:problem:inicjał Q	!	!
0r	.	1A	Qui	0ryy
.	.	1c	tol-	.
=41-	=41-	=41-	=41-	=41-
1E	Qui	2B\	-lis	0ryy
.	.	2G/	pec-	.
!LO:SIC:v:t=custos E	!	!	!	!
1F	tol-	2.A/	-ca-	.
.	.	4B\	.	.
!LO:LB:g=original	!	!	!	!
=42-	=42-	=42-	=42-	=42-
2E\	-lis	4c\	.	0ryy
.	.	4d\	.	.
2C/	pec-	1e	.	.
2AA/	-ca-	.	.	.
2BB/	-ta	2d\	-ta	.
=43-	=43-	=43-	=43-	=43-
!	!	!LO:SIC:v:t=custos B	!	!
1C	mun-	1c	mun-	0ryy
!	!	!LO:LB:g=original	!	!
2GG/	-di	2.B\	-di	.
2G\	pec-	.	.	.
.	.	4c\	pec-	.
=44-	=44-	=44-	=44-	=44-
2D/	-ca-	2d\	-ca-	0ryy
2C#X/	-ta	2e\	-ta	.
1D	mun-	1f	mun-	.
=45-	=45-	=45-	=45-	=45-
2AA/	-di	1e	-di	0ryy
1A	mi-	.	.	.
.	.	1.e	mi-	.
2G\	-ſe-	.	.	.
=46-	=46-	=46-	=46-	=46-
2E\	-re-	.	.	0ryy
2F#X\	-re	2d\	-ſe-	.
*lig	*	*	*	*
1G	no-	4B\	-re-	.
.	.	4c\	.	.
.	.	4d\	.	.
.	.	4e\	.	.
=47-	=47-	=47-	=47-	=47-
1Fny	.	4f\	.	0ryy
.	.	4e\	.	.
.	.	4d\	.	.
.	.	4c\	.	.
*Xlig	*	*	*	*
0G	.	4B\	.	.
.	.	4G/	-re	.
.	.	1c\	no-	.
=48-	=48-	=48-	=48-	=48-
.	.	.	.	0ryy
.	.	2B\	.	.
1Cny	-bis.	2c\	-bis	.
.	.	2G/	qui	.
=49-	=49-	=49-	=49-	=49-
2rC	.	1c	tol-	0ryy
2C/	qui	.	.	.
1F	tol-	2A/	-lis	.
.	.	2A/	pec-	.
=50-	=50-	=50-	=50-	=50-
2D/	-lis	2.d\	-ca-	0ryy
!LO:SIC:v:t=custos G	!	!	!	!
2D/	pec-	.	.	.
.	.	4c\	.	.
!LO:LB:g=original	!	!	!	!
2G\	-ca-	2B\	-ta	.
2F#X\	.	2A/	.	.
=51-	=51-	=51-	=51-	=51-
2E\	.	2G/	.	0ryy
!	!	!LO:TX:b:t=P:problem:♯below	!	!
2D/	-ta	2F#X/	.	.
!	!	!LO:SIC:v:t=custos F	!	!
1E	mun-	1G	mun-	.
!	!	!LO:LB:g=original	!	!
=52-	=52-	=52-	=52-	=52-
1D	-di	1F#X	-di	0ryy
2.G\	ſus-	2.B\	ſus-	.
4G\	-ci-	4B\	-ci-	.
=53-	=53-	=53-	=53-	=53-
1E	-pe	1G	-pe	0ryy
2.A\	de-	2.c\	de-	.
4G\	-pre-	4B\	-pre-	.
=54-	=54-	=54-	=54-	=54-
2Fny\	-ca-	2A/	-ca-	0ryy
2E\	-[ti]-	2G/	-[ti]-	.
2D/	-o-	2Fny/	-o-	.
2C/	-(n)em	2E/	-nem	.
=55-	=55-	=55-	=55-	=55-
1BB	n(o-	1D	n(o-	0ryy
1AA	-st)ram	2C/	-st)ram	.
.	.	2E/	qui	.
=56-	=56-	=56-	=56-	=56-
2rC	.	1A	ſe-	0ryy
2AA/	qui	.	.	.
1E	se-	2G/	-des	.
.	.	2E/	ad	.
=57-	=57-	=57-	=57-	=57-
2D/	-des	2F#X/	dex-	0ryy
2BB/	ad	4F#/	-te-	.
.	.	4G/	.	.
2.C/	dex-	1.A	-ram	.
4D/	-te-	.	.	.
=58-	=58-	=58-	=58-	=58-
1E	-r(am)	.	.	0ryy
.	.	1G	Pa-	.
1.BB	Pa-	.	.	.
!	!	!LO:TX:b:t=P:problem:♯below	!	!
.	.	4F#X/	.	.
.	.	4E/	.	.
=59-	=59-	=59-	=59-	=59-
.	.	2F#X/	.	0ryy
!LO:SIC:v:t=custos A	!	!	!	!
2GG/	.	4G/	.	.
!	!	!LO:TX:b:t=P:problem:♯below	!	!
.	.	4F#X/	.	.
!LO:LB:g=original	!	!LO:TX:b:t=P:problem:♯below	!	!
2AA/	.	(4E#/	.	.
!	!	!LO:TX:b:t=P:problem:♯below	!	!
.	.	4F#X/)	.	.
2BB/	.	1G/	.	.
=60-	=60-	=60-	=60-	=60-
2C/	.	.	.	0ryy
!	!	!LO:SIC:v:t=custos G	!	!
!	!	!LO:TX:b:t=P:problem:♯below	!	!
2D/	.	2F#X/	.	.
!	!	!LO:LB:g=original	!	!
2GG/	-tris	2G/	-tris	.
1G\	mi-	1B\	mi-	.
=61-	=61-	=61-	=61-	=61-
.	.	.	.	0ryy
2F#X\	-ſe-	2A/	-se-	.
2E\	-re-	2G/	-re-	.
2D/	-re	2F#X/	-re	.
=62-	=62-	=62-	=62-	=62-
*	*	*	*ij	*
0.E	no-	2G#X/	mi-	0ryy
.	.	2A/	-se-	.
.	.	2G#X/	-re-	.
.	.	2c\	-re	.
*	*	*	*Xij	*
=63-	=63-	=63-	=63-	=63-
.	.	1B	no-	0ryy
2AA,/	-bis	1A	-bis	.
4.A\	quo-	.	.	.
8A\	-ni-	.	.	.
=64-	=64-	=64-	=64-	=64-
4G\	-am	1rA	.	0ryy
4E\	tu	.	.	.
4F#X\	So-	.	.	.
4G\	-l(us)	.	.	.
4.A\	San-	2rG	.	.
8G\L	.	.	.	.
8F#\	.	4.A/	Quo-	.
8E\J	.	.	.	.
4F#\	.	.	.	.
.	.	8A/	-ni-	.
=65-	=65-	=65-	=65-	=65-
4E\	-ct(us)	4Gny/	-am	0ryy
4C/	Tu	4Eny/	tu	.
4D/	So-	4F#X/	so-	.
4E\	-l(us)	4G#X/	-l(us)	.
(2Fny\	San-	4.A/	San-	.
.	.	8B\	.	.
2E\)	.	4c\	.	.
.	.	4B\	.	.
=66-	=66-	=66-	=66-	=66-
4AA/	-ct(us)	2A/	-ctus	0ryy
4A\	Tu	.	.	.
4A\	So-	2rG	.	.
!LO:TX:t=P:problem:♯above	!	!	!	!
!LO:SIC:v:t=custos A	!	!	!	!
4G#X\	-l(us)	.	.	.
!LO:PB:g=original	!	!	!	!
4.A\	D(o-	4rF	.	.
.	.	4A/	Tu	.
8A\	-mi)-	.	.	.
2E\	-n(us)	4A/	So-	.
!	!	!LO:SIC:v:t=custos A	!	!
.	.	4G#X/	-l(us)	.
!	!	!LO:LB:g=original	!	!
=67-	=67-	=67-	=67-	=67-
4r	.	4.A/	D(o-	0ryy
4A\	Tu	.	.	.
.	.	8A/	-mi)-	.
4A\	So-	2E/	-n(us)	.
!LO:TX:t=P:problem:♯above	!	!	!	!
8G#X\	-l(us)	.	.	.
8G#\	al-	.	.	.
4.A\	-tiſ-	4r	.	.
.	.	4A/	Tu	.
8A\	-si-	.	.	.
4E\	-m(us)	4A/	so-	.
4E\	al-	8A/	-l(us)	.
.	.	8G#X/	al-	.
=68-	=68-	=68-	=68-	=68-
4.AA/	-tiſ-	4.A/	-tiſ-	0ryy
8AA/	-si-	8A/	-si-	.
!	!	!LO:TX:t=P:problem:kreska pseudotaktowa	!	!
2E\	-m(us)	2G#X/	-m(us)	.
8C\L	JE-	2.c\	JE-	.
8D\	.	.	.	.
8E\	.	.	.	.
8F\J	.	.	.	.
8Gny\L	.	.	.	.
8A\	.	.	.	.
8B\	.	2B\	-SV	.
8G\J	.	.	.	.
=69-	=69-	=69-	=69-	=69-
8A\L	.	.	.	0ryy
8G\	.	.	.	.
8F\J	.	2A/	Chr(i-	.
8E\	-SV	.	.	.
(4D\	CHri-	.	.	.
!	!	!LO:TX:t=P:problem:kreska pseudotaktowa	!	!
!	!	!LO:TX:b:t=P:problem:♯below	!	!
4E\)	.	4G#X/	.	.
2AA/	-ſte	2A/	-s)te	.
2AA/	Cum	2A/	Cum	.
=70-	=70-	=70-	=70-	=70-
2BB/	S[an-	2Gny/	S[an-	0ryy
!LO:SIC:v:t=custos D	!	!	!	!
2C#X/	-cto]	2E/	-cto]	.
!LO:LB:g=original	!	!	!	!
2.D/	Spi-	2.Fny/	Spi-	.
4D/	-ri-	4F/	-ri-	.
=71-	=71-	=71-	=71-	=71-
1AA	-tu	2E/	-tu	0ryy
.	.	2A/	in	.
1rE	.	2G/	glo-	.
.	.	4G/	-ri-	.
.	.	4G/	-a	.
=72-	=72-	=72-	=72-	=72-
!	!	!LO:SIC:v:t=custos E	!	!
2rC	.	1F	DE-	0ryy
2D/	Cum	.	.	.
!	!	!LO:LB:g=original	!	!
2Cny/	S[an-	2E/	-i	.
2AA/	-cto]	2e\	cum	.
=73-	=73-	=73-	=73-	=73-
2.BB/	Spi-	2d\	S[an-	0ryy
.	.	2B\	-cto]	.
4BB/	-ri-	.	.	.
2AA/	-tu	2.c\	Spi-	.
2A\	in	.	.	.
.	.	4c\	-ri-	.
=74-	=74-	=74-	=74-	=74-
2G\	glo-	1B	-tu	0ryy
4G\	-ri-	.	.	.
4G\	-a	.	.	.
*lig	*	*	*ij	*
1F	DE-	1A	cum	.
=75-	=75-	=75-	=75-	=75-
1E	.	2G/	S[an-	0ryy
.	.	2E/	-cto]	.
*Xlig	*	*	*	*
2D/	-i	2.F#X/	Spi-	.
2D/	Cum	.	.	.
.	.	4F#/	-ri-	.
=76-	=76-	=76-	=76-	=76-
2E\	S[an-	2G/	-tu	0ryy
*	*	*	*Xij	*
2F#X\	-cto]	2A/	in	.
2.G\	Spi-	2.B\	glo-	.
4G\	-ri-	4B\	-ri-	.
=77-	=77-	=77-	=77-	=77-
1D	-tu.	4A\	-a	0ryy
.	.	4A\	in	.
.	.	1d	glo-	.
2r	.	.	.	.
!LO:SIC:v:t=custos F	!	!LO:TX:t=P:problem:♯above	!	!
2G\	C(um)	2c#X\	-ri-	.
!LO:LB:g=original	!	!	!	!
=78-	=78-	=78-	=78-	=78-
2F#X\	S[an-	1d	-a	0ryy
2D/	-cto]	.	.	.
2.E\	Sp(i-	1G	Cum	.
4E\	-ri-	.	.	.
=79-	=79-	=79-	=79-	=79-
1D	-t)u	2F#X/	S[an-	0ryy
.	.	2D/	-cto]	.
0r	.	2.E/	Spi-	.
!	!	!LO:SIC:v:t=custos G	!	!
!	!	!LO:TX:b:t=P:problem:♯below	!	!
.	.	4F#/	-ri-	.
!	!	!LO:LB:g=original	!	!
=80-	=80-	=80-	=80-	=80-
.	.	4G/	.	0ryy
.	.	4D/	.	.
*	*ij	*	*ij	*
.	.	1G	-tu	.
2r	.	.	.	.
2D/	C(um)	2Fny/	Cum	.
=81-	=81-	=81-	=81-	=81-
2C/	S[an-	2E/	S[an-	0ryy
2AA/	-cto]	2e\	-cto]	.
2.BB/	Sp(i-	2d\	Spi-	.
.	.	2B\	.	.
4BB/	-ri-	.	.	.
=82-	=82-	=82-	=82-	=82-
2AA/	-t)u	2.cny\	.	0ryy
*	*Xij	*	*	*
2AA/	in	.	.	.
.	.	4c\	-ri-	.
2BB/	glo-	1B	-tu	.
*	*	*	*Xij	*
4BB/	-ri-	.	.	.
4C/	-a	.	.	.
=83-	=83-	=83-	=83-	=83-
4D/	DE-	2r	.	0ryy
4E\	.	.	.	.
4Fny\	.	2d\	in	.
4G\	.	.	.	.
2.A\	.	2c\	glo-	.
.	.	4c\	-ri-	.
4G\	.	4B\	.	.
=84-	=84-	=84-	=84-	=84-
4F\	.	4A\	.	0ryy
4E\	-I	4A\	-a	.
2D\	Pa-	2.B\	DE-	.
1F	-tris	.	.	.
.	.	4A\	-i	.
.	.	1d\	P(a-	.
=85-	=85-	=85-	=85-	=85-
0E	A-	.	.	0ryy
.	.	2c\	-t)ris	.
.	.	1B	A-	.
=86-	=86-	=86-	=86-	=86-
0AAl	-men.	0c#Xl;<	-men.	0ryy
==	==	==	==	==
*-	*-	*-	*-	*-
!!!system-decoration: [(s1,s2,s3)]
!!!RDF**kern: < = below
!!!RDF**kern: l = terminal long
!!!ENC: Marta Lawrence
!!!END: 2021-03-22
!!!ENC: Andrzej Borzym
!!!END: 2021-03-09
